X: 10091
M: C|
L: 1/8
K: G
(ub>a) |\
g>fg>e B2(e>d) | c>Bc>A E2(A>G) |\
g>fg>e B2(e>d) | c>Bc>A E1(A>G) |\
|: (B>c) |\
d>Bg>e d>Bg>e | d>Bg>e d2(c>B) |\
d>af>d d>af>d | d>af>d c2(B>c) |
d>Bg>e d>Bg>e | d>Bg>e d2(c>B) |\
d>af>d ^c>de>f | g2g2 g2 :|


